svgs/thin/file-pen.svg

<svg xmlns="http://www.w3.org/2000/svg" viewBox="0 0 576 512"><!--! Font Awesome Pro 6.4.2 by @fontawesome - https://fontawesome.com License - https://fontawesome.com/license (Commercial License) Copyright 2023 Fonticons, Inc. --><path d="M64 496H256c0 5.5 .9 10.9 2.7 16H64c-35.3 0-64-28.7-64-64V64C0 28.7 28.7 0 64 0H204.1c12.7 0 24.9 5.1 33.9 14.1L369.9 145.9c9 9 14.1 21.2 14.1 33.9V285.7l-16 16V179.9c0-1.3-.1-2.6-.2-3.9H248c-22.1 0-40-17.9-40-40V16.2c-1.3-.2-2.6-.2-3.9-.2H64C37.5 16 16 37.5 16 64V448c0 26.5 21.5 48 48 48zM361.1 160c-.8-1-1.6-1.9-2.4-2.7L226.7 25.4c-.9-.9-1.8-1.7-2.7-2.4V136c0 13.3 10.7 24 24 24H361.1zM292.7 507.2c-4-4-5.6-9.7-4.2-15.2l15-60.1c1.4-5.6 4.3-10.8 8.4-14.9L493.2 235.7c15.6-15.6 40.9-15.6 56.6 0l14.4 14.4c15.6 15.6 15.6 40.9 0 56.6L382.9 487.9c-4.1 4.1-9.2 7-14.9 8.4l-3.4-13.6 3.4 13.6-60.1 15c-5.5 1.4-11.2-.2-15.2-4.2zm15.7-28.9L304 495.8l17.6-4.4 42.5-10.6c2.8-.7 5.4-2.2 7.4-4.2L514.4 333.7l-48.3-48.3L323.2 428.3c-2 2.1-3.5 4.6-4.2 7.4l-10.6 42.5zM552.8 295.4c9.4-9.4 9.4-24.6 0-33.9L538.4 247c-9.4-9.4-24.6-9.4-33.9 0l-27.1 27.1 48.3 48.3 27.1-27.1z"/></svg>

<svg xmlns="http://www.w3.org/2000/svg" viewBox="0 0 576 512"><!--! Font Awesome Pro 6.1.1 by @fontawesome - https://fontawesome.com License - https://fontawesome.com/license (Commercial License) Copyright 2022 Fonticons, Inc. --><path d="M64 496H256C256 501.5 256.1 506.9 258.8 512H64C28.65 512 0 483.3 0 448V64C0 28.65 28.65 0 64 0H204.1C216.8 0 229.1 5.057 238.1 14.06L369.9 145.9C378.9 154.9 384 167.2 384 179.9V299.6L368 315.6V179.9C368 178.6 367.9 177.3 367.8 176H248C225.9 176 208 158.1 208 136V16.24C206.7 16.08 205.4 16 204.1 16H64C37.49 16 16 37.49 16 64V448C16 474.5 37.49 496 64 496V496zM361.1 160C360.3 159 359.5 158.1 358.6 157.3L226.7 25.37C225.9 24.5 224.1 23.68 224 22.93V136C224 149.3 234.7 160 248 160H361.1zM292.7 507.2C288.7 503.2 287.1 497.4 288.5 491.1L303.5 431.8C304.9 426.2 307.8 421.1 311.9 416.1L493.2 235.7C508.8 220.1 534.1 220.1 549.8 235.7L564.1 250.1C579.8 265.7 579.8 291 564.1 306.7L382.9 487.9C378.8 492 373.6 494.9 368 496.3L307.9 511.4C302.4 512.7 296.7 511.1 292.7 507.2L292.7 507.2zM304 495.8L364.1 480.8C366.9 480.1 369.5 478.7 371.6 476.6L514.4 333.7L466.1 285.4L323.2 428.3C321.2 430.3 319.7 432.9 319 435.7L304 495.8zM552.8 261.4L538.4 247C529.1 237.7 513.9 237.7 504.5 247L477.4 274.1L525.7 322.4L552.8 295.4C562.2 285.1 562.2 270.8 552.8 261.4L552.8 261.4zM364.6 482.8L368 496.3z"/></svg>
